src/assets/img/icons/duotone-icons/Design/Stamp.svg

<?xml version="1.0" encoding="UTF-8"?>
<svg width="24px" height="24px" viewBox="0 0 24 24" version="1.1" xmlns="http://www.w3.org/2000/svg" xmlns:xlink="http://www.w3.org/1999/xlink">
    <!-- Generator: Sketch 52.2 (67145) - http://www.bohemiancoding.com/sketch -->
    <title>Stockholm-icons / Design / Stamp</title>
    <desc>Created with Sketch.</desc>
    <g id="Stockholm-icons-/-Design-/-Stamp" stroke="none" stroke-width="1" fill="none" fill-rule="evenodd">
        <rect id="bound" x="0" y="0" width="24" height="24"></rect>
        <path d="M12.9863016,8.83409843 C12.9953113,8.88805868 13,8.94348179 13,9 L13,11 L17,11 C18.1045695,11 19,11.8954305 19,13 L19,16 L5,16 L5,13 C5,11.8954305 5.8954305,11 7,11 L11,11 L11,9 C11,8.94348179 11.0046887,8.88805868 11.0136984,8.83409843 C9.84135601,8.42615464 9,7.31133193 9,6 C9,4.34314575 10.3431458,3 12,3 C13.6568542,3 15,4.34314575 15,6 C15,7.31133193 14.158644,8.42615464 12.9863016,8.83409843 Z" id="Combined-Shape" fill="#335EEA"></path>
        <rect id="Rectangle-2" fill="#335EEA" opacity="0.3" x="5" y="18" width="14" height="2" rx="1"></rect>
    </g>
</svg>

<svg width="24" height="24" viewBox="0 0 24 24" xmlns="http://www.w3.org/2000/svg"><g fill="none" fill-rule="evenodd"><path d="M0 0h24v24H0z"/><path d="M12.986 8.834c.01.054.014.11.014.166v2h4a2 2 0 012 2v3H5v-3a2 2 0 012-2h4V9c0-.057.005-.112.014-.166A3.001 3.001 0 0112 3a3 3 0 01.986 5.834z" fill="#335EEA"/><rect fill="#335EEA" opacity=".3" x="5" y="18" width="14" height="2" rx="1"/></g></svg>
